X:1
T:Title
%%score [ 1 2 3 4 ]
L:1/8
Q:1/4=100
M:4/4
K:C
V:1 treble-8 nm="Tenor I"
V:2 treble-8 nm="Tenor II"
V:3 bass nm="Bass I"
V:4 bass nm="Bass II"
V:1
!f!"^Feurig (fiery)" G2 | e7/2 d/ e>d e>d | f4 d2 G2 | c7/2 B/ A>c ^d>B | e6!p! G2 | %5
w: So|lang im deutsch- en Ei- chen-|tha- le, Na-|tur, dein heh- rer Schau- er|webt, und|
 e7/2 d/ e>d e>d |!ff! f4 e2 =c2 | a4- a>g f>g | f2 g2 a2 z f | B4- B>c A>c | %10
w: bei des Mon- des Gei- ster-|strah- le der|Ad- * ler Wo- dan's|mich um- schwebt, der|Ad- * ler Wo- dan's|
 _e2 d2 !fermata!g2!pp! G2 | =e7/2 e/ e>e d>e | g3 f d3 d | e3 d c>c e>d | (d4 B2) G2 | %15
w: mich um- schwebt; so|lang in der Er- wähl- ten|Bli- * cken mir|tau- send Him- mel of- fen|steh'n _ und|
 e7/2 e/ e>e d>e | (a2- a/g/f/e/) d z (!>!e>d) | c2 (!>!e>d) B2 (!>!e>d) |!f! c2 (!>!e>d) B2 z G | %19
w: mit ver- göt- tern- dem Ent-|zü- * * * * cken wir _|Arm in _ Arm durch's _|Le- ben _ geh'n; so|
 e7/2 d/ e>d e>d | f4 d2 G2 | c7/2 B/ A>c ^d>B | e6!p! G2 | e7/2 d/ e>d e>d |!ff! f4 e2 =c2 | %25
w: lang in wack'- rer Brü- der|Krei- se der|Bun- des- kelch zur Wei- he|klingt, und|je- der nach der Ahn- herrn|Wei- se in|
 a4- a>g f>g | f2 g2 a2 z f | B4- B>c A>c | _e2 d2 !fermata!g2!pp! G2 | =e7/2 e/ e>e d>e | %30
w: Tell's _ und Herr- mann's|Ju- bel singt, in|Tell's _ und Herr- mann's|Ju- bel singt: will|ich den Gram den Win- den|
 (g3 f) d3 d | e3 d c>c e>d | (d4 B2) G2 | e7/2 e/ e>e d>e | %34
w: ge- * ben, selbst|Au- gen- bli- cken Krän- ze|weih'n, _ und|noch, wo To- des- en- gel|
 (a2- a/g/f/e/) d z"^cresc.   ­          ­          ­          ­" (!>!e>d) | %35
w: schwe- * * * * ben, den _|
 c2 (!>!e>d) B2 (!>!e>d) |!f! c2 (!>!e>d) B2 z G | B7/2 G/ c>A d>B | %38
w: Pfad mit _ Ro- sen _|mir be- * streu'n, und|noch, wo To- des- en- gel|
!<(! (e3!<)!!>(! f) e!>)! z!p! e2 | f7/2 e/ d>f e>d | (c2 a4)!p! g2 | f7/2 e/ d>f e>d | c>c g4 ee | %43
w: schwe- * ben, den|Pfad mit Ro- sen mir be-|streu'n, _ den|Pfad mit Ro- sen mir be-|streu'n, mit Ro- sen be-|
!<(!!>(! !fermata!c8!<)!!>)! |] %44
w: streu'n.|
V:2
!f! G2 | c7/2 B/ c>B c>B | d4 B2 G2 | c7/2 B/ A>c ^d>B | e6!p! G2 | c7/2 B/ c>B c>B | %6
w: So|lang im deutsch- en Ei- chen-|tha- le, Na-|tur, dein heh- rer Schau- er|webt, und|bei des Mon- des Gei- ster-|
!ff! d4 ^c2 =c2 | f4- f>e d>e | d2 e2 f2 z f | B4- B>c A>c | _e2 d2 !fermata!B2!pp! G2 | %11
w: strah- le der|Ad- * ler Wo- dan's|mich um- schwebt, der|Ad- * ler Wo- dan's|mich um- schwebt; so|
 c7/2 c/ c>c B>c | (e3 d) G3 G | c3 B A>A c>B | (B4 G2) G2 | c7/2 c/ c>c B>c | %16
w: lang in der Er- wähl- ten|Bli- * cken mir|tau- send Him- mel of- fen|steh'n _ und|mit ver- göt- tern- dem Ent-|
 (f2- f/e/d/c/) B z (!>!c>B) | A2 (!>!c>B) G2 (!>!c>B) |!f! A2 (!>!c>B) G2 z G | c7/2 B/ c>B c>B | %20
w: zü- * * * * cken wir _|Arm in _ Arm durch's _|Le- ben _ geh'n; so|lang in wack'- rer Brü- der|
 d4 B2 G2 | c7/2 B/ A>c ^d>B | e6!p! G2 | c7/2 B/ c>B c>B |!ff! d4 ^c2 =c2 | f4- f>e d>e | %26
w: Krei- se der|Bun- des- kelch zur Wei- he|klingt, und|je- der nach der Ahn- herrn|Wei- se in|Tell's _ und Herr- mann's|
 d2 e2 f2 z f | B4- B>c A>c | _e2 d2 !fermata!B2!pp! G2 | c7/2 c/ c>c B>c | (e3 d) G3 G | %31
w: Ju- bel singt, in|Tell's _ und Herr- mann's|Ju- bel singt: will|ich den Gram den Win- den|ge- * ben, selbst|
 c3 B A>A c>B | (B4 G2) G2 | c7/2 c/ c>c B>c | %34
w: Au- gen- bli- cken Krän- ze|weih'n, _ und|noch, wo To- des- en- gel|
 (f2- f/e/d/c/) B z"^cresc.   ­          ­          ­          ­" (!>!c>B) | %35
w: schwe- * * * * ben, den _|
 A2 (!>!c>B) G2 (!>!c>B) |!f! A2 (!>!c>B) G2 z G | B7/2 G/ c>A d>B | %38
w: Pfad mit _ Ro- sen _|mir be- * streu'n, und|noch, wo To- des- en- gel|
!<(! (B2 c2)!<)!!>(! B!>)! z!p! c2 | c7/2 c/ c>c B>B | (c2 f4)!p! e2 | c7/2 c/ c>c B>B | %42
w: schwe- * ben, den|Pfad mit Ro- sen mir be-|streu'n, _ den|Pfad mit Ro- sen mir be-|
 c>c e4 cc |!<(!!>(! !fermata!G8!<)!!>)! |] %44
w: streu'n, mit Ro- sen be-|streu'n.|
V:3
!f! G,2 | G,7/2 G,/ G,>G, G,>G, | A,4 G,2 G,2 | C,7/2 B,,/ A,,>C, ^D,>B,, | E,6!p! G,2 | %5
w: So|lang im deutsch- en Ei- chen-|tha- le, Na-|tur, dein heh- rer Schau- er|webt, und|
 G,7/2 G,/ G,>G, G,>G, |!ff! A,4 A,2 =C2 | C4- C>C A,>C | A,2 C2 C2 z F, | B,,4- B,,>C, A,,>C, | %10
w: bei des Mon- des Gei- ster-|strah- le der|Ad- * ler Wo- dan's|mich um- schwebt, der|Ad- * ler Wo- dan's|
 _E,2 D,2 !fermata!D,2!pp! G,2 | G,7/2 G,/ G,>G, G,>G, | G,4 G,3 G, | G,3 G, ^F,>F, F,>F, | %14
w: mich um- schwebt; so|lang in der Er- wähl- ten|Bli- cken mir|tau- send Him- mel of- fen|
 G,6 G,2 | G,7/2 G,/ G,>G, G,>G, | G,4 G, z !>!G,2 | ^F,2 !>!F,2 G,2 !>!E,2 | %18
w: steh'n und|mit ver- göt- tern- dem Ent-|zü- cken wir|Arm in Arm durch's|
!f! E,2 !>!^F,2 G,2 z G, | G,7/2 G,/ G,>G, G,>G, | A,4 G,2 G,2 | C,7/2 B,,/ A,,>C, ^D,>B,, | %22
w: Le- ben geh'n; so|lang in wack'- rer Brü- der|Krei- se der|Bun- des- kelch zur Wei- he|
 E,6!p! G,2 | G,7/2 G,/ G,>G, G,>G, |!ff! A,4 A,2 =C2 | C4- C>C A,>C | A,2 C2 C2 z F, | %27
w: klingt, und|je- der nach der Ahn- herrn|Wei- se in|Tell's _ und Herr- mann's|Ju- bel singt, in|
 B,,4- B,,>C, A,,>C, | _E,2 D,2 !fermata!D,2!pp! G,2 | G,7/2 G,/ G,>G, G,>G, | G,4 G,3 G, | %31
w: Tell's _ und Herr- mann's|Ju- bel singt: will|ich den Gram den Win- den|ge- ben, selbst|
 G,3 G, ^F,>F, F,>F, | G,6 G,2 | G,7/2 G,/ G,>G, G,>G, | %34
w: Au- gen- bli- cken Krän- ze|weih'n, und|noch, wo To- des- en- gel|
 G,4 G, z"^cresc.   ­          ­          ­          ­" !>!G,2 | ^F,2 !>!F,2 G,2 !>!E,2 | %36
w: schwe- ben, den|Pfad mit Ro- sen|
!f! E,2 !>!^F,2 G,2 z G, | B,7/2 G,/ C>A, D>B, |!<(! (^G,2 A,2)!<)!!>(! G,!>)! z!p! =G,2 | %39
w: mir be- streu'n, und|noch, wo To- des- en- gel|schwe- * ben, den|
 A,7/2 G,/ F,>A, G,>F, | (E,2 C4)!p! C2 | A,7/2 G,/ F,>A, G,>F, | E,>C C4 G,G, | %43
w: Pfad mit Ro- sen mir be-|streu'n, _ den|Pfad mit Ro- sen mir be-|streu'n, mit Ro- sen be-|
!<(!!>(! !fermata!E,8!<)!!>)! |] %44
w: streu'n.|
V:4
!f! G,2 | C,7/2 G,,/ C,>G,, C,>G,, | D,4 G,,2 G,,2 | C,7/2 B,,/ A,,>C, ^D,>B,, | E,6!p! G,2 | %5
w: So|lang im deutsch- en Ei- chen-|tha- le, Na-|tur, dein heh- rer Schau- er|webt, und|
 C,7/2 G,,/ C,>G,, C,>G,, |!ff! D,4 A,,2 =C,2 | F,4- F,>C, D,>C, | D,2 C,2 F,2 z F, | %9
w: bei des Mon- des Gei- ster-|strah- le der|Ad- * ler Wo- dan's|mich um- schwebt, der|
 B,,4- B,,>C, A,,>C, | _E,2 D,2 !fermata!G,,2!pp! G,2 | C,7/2 C,/ C,>C, C,>C, | (B,,3 D,) G,3 G, | %13
w: Ad- * ler Wo- dan's|mich um- schwebt; so|lang in der Er- wähl- ten|Bli- * cken mir|
 C,3 C, D,>D, D,>D, | (G,4 G,,2) G,2 | C,7/2 C,/ C,>C, C,>C, | (B,,3 D,) G, z !>!C,2 | %17
w: tau- send Him- mel of- fen|steh'n _ und|mit ver- göt- tern- dem Ent-|zü- * cken wir|
 D,2 !>!D,2 G,2 !>!A,,>B,, |!f! C,2 !>!D,2 G,2 z G, | C,7/2 G,,/ C,>G,, C,>G,, | D,4 G,,2 G,,2 | %21
w: Arm in Arm durch's _|Le- ben geh'n; so|lang in wack'- rer Brü- der|Krei- se der|
 C,7/2 B,,/ A,,>C, ^D,>B,, | E,6!p! G,2 | C,7/2 G,,/ C,>G,, C,>G,, |!ff! D,4 A,,2 =C,2 | %25
w: Bun- des- kelch zur Wei- he|klingt, und|je- der nach der Ahn- herrn|Wei- se in|
 F,4- F,>C, D,>C, | D,2 C,2 F,2 z F, | B,,4- B,,>C, A,,>C, | _E,2 D,2 !fermata!G,,2!pp! G,2 | %29
w: Tell's _ und Herr- mann's|Ju- bel singt, in|Tell's _ und Herr- mann's|Ju- bel singt: will|
 C,7/2 C,/ C,>C, C,>C, | (B,,3 D,) G,3 G, | C,3 C, D,>D, D,>D, | (G,4 G,,2) G,2 | %33
w: ich den Gram den Win- den|ge- * ben, selbst|Au- gen- bli- cken Krän- ze|weih'n, _ und|
 C,7/2 C,/ C,>C, C,>C, | (B,,3 D,) G, z"^cresc.   ­          ­          ­          ­" !>!C,2 | %35
w: noch, wo To- des- en- gel|schwe- * ben, den|
 D,2 !>!D,2 G,2 !>!A,,>B,, |!f! C,2 !>!D,2 G,2 z G, | B,7/2 G,/ C>A, D>B, | %38
w: Pfad mit Ro- sen _|mir be- streu'n, und|noch, wo To- des- en- gel|
!<(! E,4!<)!!>(! E,!>)! z!p! C,2 | C,7/2 C,/ G,,>G,, G,,>G,, | (C,2 F,4)!p! C,2 | %41
w: schwe- ben, den|Pfad mit Ro- sen mir be-|streu'n, _ den|
 C,7/2 C,/ G,,>G,, G,,>G,, | C,>C, C4 C,C, |!<(!!>(! !fermata!C,8!<)!!>)! |] %44
w: Pfad mit Ro- sen mir be-|streu'n, mit Ro- sen be-|streu'n.|

